X:71
T:Frosty Mornings Clog
R:clog
C:Bruce Osborne - Nov. 2002
Z:abc by bosborne@kos.net
M:4/4
L:1/8
K:Gmaj
B,>C|D>GB>A G>DB,>D|G>FG>B d>BG>B|A>GA>B c>AF>A|G>FG>A B2 B,>C|\
D>GB>A G>DB,>D|G>FG>B d>BG>B|A>GA>B c>AF>A|(3GFG B>A G2:|
|:B>c|d>BG>B d>gf>e|d>BG>E D>B,G,>B,|A,>G,A,>B, C>B,C>D|(3EFE D>C B,2 B>c|\
d>BG>B d>gf>e|d>BG>E D>B,G,>B,|A,>G,A,>B, C>DF>E|(3DED B>A G2:|
